X:386
T: "Die verzauberte Nachtigall"
N: Z1066
O: Europa, Mitteleuropa, Deutschland
R: Romanze, Ballade, Tod
M: 6/8
L: 1/16
K: D
 | D4E2=F4D2 | =F4G2A6 |
A4B2=c4BA | A4^G2A4
=c2 | B6A4=c2 | B6A4z2 |
A4_B2G4A2 | =F4G2E6 |
D4E2F4D2 | =F4G2A4
GF | E6D4=F2 | E6D4z2

@@@ Tune index: 10144
